assets/graphics/logo-symbol-transparent.svg

<?xml version="1.0" encoding="UTF-8"?>
<svg width="58px" height="88px" viewBox="0 0 58 88" version="1.1" xmlns="http://www.w3.org/2000/svg" xmlns:xlink="http://www.w3.org/1999/xlink">
    <title>logo-full</title>
    <defs>
        <polygon id="path-1" points="0 2.78383965e-22 57.8797 2.78383965e-22 57.8797 87.3389 0 87.3389"></polygon>
    </defs>
    <g id="Page-1" stroke="none" stroke-width="1" fill="none" fill-rule="evenodd">
        <g id="Fill-378-Clipped" transform="translate(0.000000, 0.000000)">
            <mask id="mask-2" fill="white">
                <use xlink:href="#path-1"></use>
            </mask>
            <g id="path-1"></g>
            <path d="M35.3987,37.1049 L28.9547,30.6599 L22.4807,37.1049 L28.9547,43.5479 L35.3987,37.1049 Z M28.9547,75.3909 L49.4247,54.9209 L49.4247,10.1899 L34.9047,24.7099 L47.3017,37.1059 L28.9617,55.4459 L28.9177,55.4459 L10.5777,37.1059 L22.9747,24.7099 L8.4547,10.1899 L8.4547,54.9209 L28.9247,75.3909 L28.9547,75.3909 Z M28.9187,87.3389 L-0.0003,58.4199 L-0.0003,-0.0001 L10.1947,-0.0001 L28.9387,18.7429 L47.6847,-0.0001 L57.8797,-0.0001 L57.8797,58.4199 L28.9607,87.3389 L28.9187,87.3389 Z" id="Fill-378" fill="#979797" fill-rule="nonzero" mask="url(#mask-2)"></path>
        </g>
    </g>
</svg>

<svg height="88" viewBox="0 0 58 88" width="58" xmlns="http://www.w3.org/2000/svg" xmlns:xlink="http://www.w3.org/1999/xlink"><mask id="a" fill="#fff"/><path d="m35.3987 37.1049-6.444-6.445-6.474 6.445 6.474 6.443zm-6.444 38.286 20.47-20.47v-44.731l-14.52 14.52 12.397 12.396-18.34 18.34h-.044l-18.34-18.34 12.397-12.396-14.52-14.52v44.731l20.47 20.47zm-.036 11.948-28.919-28.919v-58.42h10.195l18.744 18.743 18.746-18.743h10.195v58.42l-28.919 28.919z" fill="#979797" mask="url(#a)"/></svg>
